X:1
T:An den Frühling
T:An den Frühling
T:Franz Schubert Serie 16. No. 40 
T:Schiller
C:Franz Schubert Serie 16 No. 40
Z:Schiller
%%score [ 1 2 3 4 ]
L:1/8
Q:3/8=60
M:6/8
K:G
V:1 treble-8 nm="Tenor 1" snm="T1."
V:2 treble-8 nm="T2"
V:3 bass nm="B1"
V:4 bass nm="B2"
V:1
!p!"^Etwas geschwind" d | d2 c!>(! e2 d!>)! | (BdB) !fermata!d2 (B/c/) | (d2 c!>(! e2) g!>)! | %4
w: 1. Will-|kom- men schö- ner|Jüng- * * ling! Du _|Won- * * ne|
w: 2. Ei,|Ei, da bist ja|wie- * * der! Und _|bist _ _ so|
w: 3. Denkst|auch noch an mein|Mäd- * * chen? Ei _|Lie- * * ber,|
w: 4. Für's|Mäd- chen man- ches|Blüm- * * chen er- *|bat _ _ ich|
 (Bd) B !fermata!d2!pp! d | ^c2 c c2 d |!>(! (^d2 e)!>)! A2 ^c | ^c2 c c2 d | %8
w: der _ Na- tur! Mit|dei- nem Blu- men-|körb- * chen will-|kom- men auf der|
w: lieb _ und schön. Und|freun wir uns so|herz- * lich, ent-|ge- gen dir zu|
w: den- * ke doch! Dort|lieb- te mich das|Mäd- * chen, und's|Mäd- chen liebt mich|
w: mir _ von dir, ich|komm und bit- te|wie- * der, und|du? Du giebst es|
!>(! (^d/e/g!>)!e/^c/ !fermata!A2)!f! =d |!>(! (d3!>)! d) z g |!>(! g3-!>)! g e c | %11
w: Flur! _ _ _ _ _ Will-|kom- men, will-|kom- * men, will-|
w: gehn! _ _ _ _ _ Ei!|Ei! _ Ei!|Ei! _ _ Ent-|
w: noch! _ _ _ _ _ Ei!|Ei! _ Ei!|Ei! _ _ Ei|
w: mir. _ _ _ _ _ Will-|kom- men, will-|kom- * men, will|
!p! (Be) d{d} cB A |!pp! (dB) g (dB) g | d6 | (dB) g (dB) g |"^emoriendo" d6- | !fermata!d4 z |] %17
w: kom- * men auf * der|Flur, _ la la _ la|la|la _ la la _ la|la.|_|
w: ge- * gen dir * zu|gehn, _ _ _ _ _|_||||
w: Lie- * ber den- * ke|doch, _ _ _ _ _|_||||
w: kom- * men auf * der|Flur, _ _ _ _ _|_||||
V:2
!p! B | B2 A!>(! c2 B!>)! | (GBG) !fermata!B2 B | (B2 A!>(! c2) B!>)! | (GB) G !fermata!B2!pp! A | %5
w: 1. Will-|kom- men schö- ner|Jüng- * * ling! Du|Won- * * ne|der _ Na- tur! Mit|
w: 2. Ei,|Ei, da bist ja|wie- * * der! Und|bist _ _ so|lieb _ und schön. Und|
w: 3. Denkst|auch noch an mein|Mäd- * * chen? Ei|Lie- * * ber,|den- * ke doch! Dort|
w: 4. Für's|Mäd- chen man- ches|Blüm- * * chen er-|bat _ _ ich|mir _ von dir, ich|
 A2 A A2 A |!>(! ^c3!>)! c2 A | A2 A A2 A |!>(! ^c3-!>)! !fermata!c2!f! d | %9
w: dei- nem Blu- men-|körb- chen will-|kom- men auf der|Flur! _ Will-|
w: freun wir uns so|herz- lich, ent-|ge- gen dir zu|gehn! _ Ent-|
w: lieb- te mich das|Mäd- chen, und's|Mäd- chen liebt mich|noch! _ Ei|
w: komm und bit- te|wie- der, und|du? Du giebst es|mir. _ Will-|
!>(! (B2 B/=c/)!>)! B2 d |!>(! (d2 e/=f/)!>)! e2 z |!p! _A z z =A z z |!pp! (Bd) B (Bd) B | %13
w: kom- * * men, will-|kom- * * men|auf der|Flur, _ la la _ la|
w: ge- * * gen, ent-|ge- * * gen|dir zu|gehn, _ _ _ _ _|
w: Lie- * * ber, ei|Lie- * * ber,|den- ke|doch, _ _ _ _ _|
w: kom- * * men, will-|kom- * * men|auf der|Flur, _ _ _ _ _|
 A2 c A2 c | (Bd) B (Bd) B |"^emoriendo" A2 c A2 c | !fermata!B4 z |] %17
w: la la la la|la _ la la _ la|la la la la|la.|
w: _ _ _ _||||
w: _ _ _ _||||
w: _ _ _ _||||
V:3
!p! D, | D,2 D,!>(! D,2 D,!>)! | D,3 !fermata!D,2 D, | (D,3!>(! D,2) D,!>)! | %4
w: 1. Will-|kom- men schö- ner|Jüng- ling! Du|Won- * ne|
w: 2. Ei,|Ei, da bist ja|wie- der! Und|bist _ so|
w: 3. Denkst|auch noch an mein|Mäd- chen? Ei|Lie- * ber,|
w: 4. Für's|Mäd- chen man- ches|Blüm- chen er-|bat _ ich|
 D,2 D, !fermata!D,2!pp! F, | G,2 G, G,2 G, |!>(! G,3!>)! G,2 G, | G,2 G, G,2 F, | %8
w: der Na- tur! Mit|dei- nem Blu- men-|körb- chen will-|kom- men auf der|
w: lieb und schön. Und|freun wir uns so|herz- lich, ent-|ge- gen dir zu|
w: den- ke doch! Dort|lieb- te mich das|Mäd- chen, und's|Mäd- chen liebt mich|
w: mir von dir, ich|komm und bit- te|wie- der, und|du? Du giebst es|
!>(! G,3-!>)! !fermata!G,2!f! F, |!>(! (F,2 G,/A,/)!>)! G,2 B, |!>(! (B,2 C/D/)!>)! C2 z | %11
w: Flur! _ Will-|kom- * * men, will-|kom- * * men|
w: gehn! _ Ent-|ge- * * gen, ent-|ge- * * gen|
w: noch! _ Ei|Lie- * * ber, ei|Lie- * * ber,|
w: mir. _ Will-|kom- * * men, will-|kom- * * men|
!p! G, z z F, z z |!pp! G,2 D, D,2 D, | (F,D,) A, (F,D,) A, | G,2 D, D,2 D, | %15
w: auf der|Flur, la la la|la _ la la _ la|la la la la|
w: dir zu|gehn, * * *|||
w: den- ke|doch, * * *|||
w: auf der|Flur, * * *|||
"^emoriendo" (F,D,) A, (F,D,) A, | !fermata!D,4 z |] %17
w: la _ la la _ la|la.|
w: ||
w: ||
w: ||
V:4
!p! G,, | G,,2 G,,!>(! G,,2 G,,!>)! | G,,3 !fermata!G,,2 G,, | (G,,3!>(! G,,2) G,,!>)! | %4
w: 1. Will-|kom- men schö- ner|Jüng- ling! Du|Won- * ne|
w: 2. Ei,|Ei, da bist ja|wie- der! Und|bist _ so|
w: 3. Denkst|auch noch an mein|Mäd- chen? Ei|Lie- * ber,|
w: 4. Für's|Mäd- chen man- ches|Blüm- chen er|bat _ ich|
 G,,2 G,, !fermata!G,,2!pp! D, | A,,2 A,, A,,2 A,, |!>(! A,,3!>)! A,,2 A,, | A,,2 A,, A,,2 _A,, | %8
w: der Na- tur! Mit|dei- nem Blu- men-|körb- chen will-|kom- men auf der|
w: lieb und schön. Und|freun wir uns so|herz- lich, ent-|ge- gen dir zu|
w: den- ke doch! Dort|lieb- te mich das|Mäd- chen, und's|Mäd- chen liebt mich|
w: mir von dir, ich|komm und bit- te|wie- der, und|du? Du giebst es|
!>(! A,,3-!>)! !fermata!A,,2!f! D, |!>(! D,3!>)! G, z G, |!>(! G,3!>)! C, z z |!p! D, z z D, z z | %12
w: Flur! _ Will-|kom- men, will-|kom- men|auf der|
w: gehn! _ Ent-|ge- gen, ent-|ge- gen|dir zu|
w: noch! _ Ei|Lie- ber, ei|Lie- ber,|den- ke|
w: mir. _ Will-|kom- men, will-|kom- men|auf der|
!pp! G,,2 G,, G,,2 B,, | D,6 | G,,2 G,, G,,2 B,, |"^emoriendo" D,4- D, D, | !fermata!G,,4 z |] %17
w: Flur, la la la|la|la la la la|la * la|la.|
w: gehn, * * *|||||
w: doch, * * *|||||
w: Flur, * * *|||||

